germany/municipalities/07131076.svg

<?xml version="1.0" encoding="UTF-8" standalone="no"?>
<!-- Created with Inkscape (http://www.inkscape.org/) -->

<svg
   xmlns:dc="http://purl.org/dc/elements/1.1/"
   xmlns:cc="http://creativecommons.org/ns#"
   xmlns:rdf="http://www.w3.org/1999/02/22-rdf-syntax-ns#"
   xmlns:svg="http://www.w3.org/2000/svg"
   xmlns="http://www.w3.org/2000/svg"
   xmlns:sodipodi="http://sodipodi.sourceforge.net/DTD/sodipodi-0.dtd"
   xmlns:inkscape="http://www.inkscape.org/namespaces/inkscape"
   width="197.93207mm"
   height="209.34358mm"
   viewBox="0 0 701.3341 741.76859"
   id="svg5801"
   version="1.1"
   inkscape:version="0.91 r13725"
   sodipodi:docname="DEU Sierscheid COA.svg">
  <defs
     id="defs5803" />
  <sodipodi:namedview
     id="base"
     pagecolor="#ffffff"
     bordercolor="#666666"
     borderopacity="1.0"
     inkscape:pageopacity="0.0"
     inkscape:pageshadow="2"
     inkscape:zoom="0.72798985"
     inkscape:cx="350.66705"
     inkscape:cy="370.88431"
     inkscape:document-units="px"
     inkscape:current-layer="layer1"
     showgrid="false"
     inkscape:window-width="1366"
     inkscape:window-height="745"
     inkscape:window-x="-8"
     inkscape:window-y="-8"
     inkscape:window-maximized="1"
     fit-margin-top="0"
     fit-margin-left="0"
     fit-margin-right="0"
     fit-margin-bottom="0"
     inkscape:snap-midpoints="true"
     inkscape:snap-smooth-nodes="true"
     inkscape:object-nodes="true" />
  <metadata
     id="metadata5806">
    <rdf:RDF>
      <cc:Work
         rdf:about="">
        <dc:format>image/svg+xml</dc:format>
        <dc:type
           rdf:resource="http://purl.org/dc/dcmitype/StillImage" />
        <dc:title></dc:title>
      </cc:Work>
    </rdf:RDF>
  </metadata>
  <g
     inkscape:label="Ebene 1"
     inkscape:groupmode="layer"
     id="layer1"
     transform="translate(-24.589385,-52.987211)">
    <path
       style="fill:#ffffff;fill-rule:evenodd;stroke:none;stroke-width:11;stroke-opacity:1"
       inkscape:connector-curvature="0"
       d="m 30.269105,58.487212 13.398,416.624408 c 7.415,175.24977 153.919795,314.04607 331.589245,314.14417 177.50972,-0.2149 324.06941,-139.0612 331.58942,-314.14417 l 13.39798,-416.624408 -344.9794,0 z"
       id="path10563-0-5" />
    <path
       style="fill:#000000;fill-rule:evenodd;stroke:#000000;stroke-width:1px;stroke-linecap:butt;stroke-linejoin:miter;stroke-opacity:1"
       d="M 350.66797 5.5 L 197.12695 698.9668 C 243.12338 722.77335 295.38406 736.23901 350.66602 736.26953 C 405.92462 736.20263 458.18234 722.69628 504.18164 698.84961 L 350.66797 5.5 z "
       transform="translate(24.589385,52.987211)"
       id="path6432-6" />
    <path
       style="opacity:1;fill:#000000;fill-opacity:1;fill-rule:nonzero;stroke:#000000;stroke-width:0.99999988;stroke-linecap:round;stroke-linejoin:round;stroke-miterlimit:4;stroke-dasharray:none;stroke-dashoffset:0;stroke-opacity:1"
       d="M 118.83984 5.5 L 118.83984 247.89648 L 13.474609 247.89648 L 16.060547 328.27344 L 118.83984 328.27344 L 118.83984 642.75781 C 142.49842 665.58611 169.57475 684.94242 199.2168 700.02148 L 199.2168 328.27344 L 329.55664 328.27344 L 329.55664 247.89648 L 199.2168 247.89648 L 199.2168 5.5 L 118.83984 5.5 z "
       transform="translate(24.589385,52.987211)"
       id="rect6465" />
    <path
       style="fill:none;fill-rule:evenodd;stroke:#000000;stroke-width:11;stroke-opacity:1"
       inkscape:connector-curvature="0"
       d="m 30.2691,58.487211 13.398,416.624409 c 7.415,175.24977 153.9198,314.04607 331.58926,314.14417 177.5097,-0.2149 324.0694,-139.0612 331.5894,-314.14417 l 13.398,-416.624409 -344.9794,0 z"
       id="path10563-0" />
    <path
       style="fill:#ff0000;fill-opacity:1;fill-rule:evenodd;stroke:#000000;stroke-width:8;stroke-linecap:butt;stroke-linejoin:round;stroke-miterlimit:4;stroke-dasharray:none;stroke-opacity:1"
       d="M 473.48828 48.375 L 549.72656 264.48047 L 439.81055 190.31836 L 471.59766 270.96094 L 439.81055 351.60547 L 549.72656 277.44141 L 473.48828 493.54688 L 554.13086 432.75391 L 634.77539 493.54688 L 558.53516 277.44141 L 668.45312 351.60547 L 636.66602 270.96094 L 668.45312 190.31836 L 558.53516 264.48047 L 634.77539 48.375 L 554.13086 109.16797 L 473.48828 48.375 z "
       transform="translate(24.589385,52.987211)"
       id="path6561" />
  </g>
</svg>

<svg xmlns="http://www.w3.org/2000/svg" width="748.09" height="791.22" viewBox="0 0 701.334 741.769"><path style="fill:#fff;fill-rule:evenodd;stroke:none;stroke-width:11;stroke-opacity:1" d="m30.27 58.487 13.397 416.625c7.415 175.25 153.92 314.046 331.59 314.144 177.51-.215 324.069-139.061 331.589-314.144l13.398-416.625h-344.98z" transform="translate(-24.59 -52.987)"/><path style="fill:#000;fill-rule:evenodd;stroke:#000;stroke-width:1px;stroke-linecap:butt;stroke-linejoin:miter;stroke-opacity:1" d="M350.668 5.5 197.127 698.967c45.996 23.806 98.257 37.272 153.539 37.303 55.259-.067 107.516-13.574 153.516-37.42L350.668 5.5z"/><path style="opacity:1;fill:#000;fill-opacity:1;fill-rule:nonzero;stroke:#000;stroke-width:.99999988;stroke-linecap:round;stroke-linejoin:round;stroke-miterlimit:4;stroke-dasharray:none;stroke-dashoffset:0;stroke-opacity:1" d="M118.84 5.5v242.396H13.475l2.586 80.377H118.84v314.485a333.68 333.68 0 0 0 80.377 57.263V328.273h130.34v-80.377h-130.34V5.5H118.84z"/><path style="fill:none;fill-rule:evenodd;stroke:#000;stroke-width:11;stroke-opacity:1" d="m30.27 58.487 13.397 416.625c7.415 175.25 153.92 314.046 331.59 314.144 177.51-.215 324.069-139.061 331.589-314.144l13.398-416.625h-344.98z" transform="translate(-24.59 -52.987)"/><path style="fill:red;fill-opacity:1;fill-rule:evenodd;stroke:#000;stroke-width:8;stroke-linecap:butt;stroke-linejoin:round;stroke-miterlimit:4;stroke-dasharray:none;stroke-opacity:1" d="m473.488 48.375 76.239 216.105-109.916-74.162 31.787 80.643-31.787 80.644 109.916-74.164-76.239 216.106 80.643-60.793 80.644 60.793-76.24-216.106 109.918 74.164-31.787-80.644 31.787-80.643-109.918 74.162 76.24-216.105-80.644 60.793-80.643-60.793z"/></svg>
